projects/oblique/icons/Cards.svg

<?xml version="1.0" encoding="UTF-8"?><svg id="a" xmlns="http://www.w3.org/2000/svg" viewBox="0 0 24 24"><path d="M10.84521,10.84524H2.25V2.24954h8.59521v8.5957ZM3.75,9.34524h5.59521V3.74954H3.75v5.5957ZM21.75,21.74954h-8.59521v-8.59473h8.59521v8.59473ZM14.65479,20.24954h5.59521v-5.59473h-5.59521v5.59473ZM10.84521,21.74954H2.25v-8.59473h8.59521v8.59473ZM3.75,20.24954h5.59521v-5.59473H3.75v5.59473ZM21.75,10.84524h-8.59521V2.24954h8.59521v8.5957ZM14.65479,9.34524h5.59521V3.74954h-5.59521v5.5957Z"/></svg>

<svg xmlns="http://www.w3.org/2000/svg" viewBox="0 0 24 24"><path d="M10.84521,10.84524H2.25V2.24954h8.59521ZM3.75,9.34524H9.34521V3.74954H3.75Z"/><path d="M21.75,21.74954H13.15479V13.15481H21.75Zm-7.09521-1.5H20.25V14.65481H14.65479Z"/><path d="M10.84521,21.74954H2.25V13.15481h8.59521Zm-7.09521-1.5H9.34521V14.65481H3.75Z"/><path d="M21.75,10.84524H13.15479V2.24954H21.75Zm-7.09521-1.5H20.25V3.74954H14.65479Z"/></svg>
